packages/dnb-eufemia/assets/icons/diamond.svg

<svg width="16" height="16" viewBox="0 0 16 16" fill="none" xmlns="http://www.w3.org/2000/svg">
<path d="M12.3101 1.60981C12.4446 1.68202 12.5617 1.78687 12.6519 1.91605L14.8064 5.00241C14.9372 5.18976 15.0053 5.41901 14.9997 5.65307M12.3101 1.60981C12.1755 1.5376 12.0271 1.5 11.8767 1.5H4.12458C3.97415 1.5 3.82578 1.5376 3.69122 1.60981M12.3101 1.60981L10.9581 5.65307M3.69122 1.60981C3.55667 1.68202 3.43963 1.78687 3.34937 1.91605L1.19363 5.00241C1.0628 5.18976 0.994695 5.41901 1.00032 5.65307M3.69122 1.60981L5.04276 5.65307M1.00032 5.65307C1.00595 5.88712 1.08498 6.1123 1.22464 6.29216L7.25709 14.1277C7.43899 14.3608 7.71669 14.5 8 14.5M1.00032 5.65307H5.04276M8 14.5C8.28332 14.5 8.56101 14.3608 8.74291 14.1277L14.7754 6.29216C14.915 6.1123 14.9941 5.88712 14.9997 5.65307M8 14.5L5.04276 5.65307M8 14.5L10.9581 5.65307M14.9997 5.65307H10.9581M5.04276 5.65307H10.9581" stroke="black" stroke-width="1.5" stroke-linecap="round" stroke-linejoin="round"/>
</svg>

<svg width="16" height="16" viewBox="0 0 16 16" fill="none" xmlns="http://www.w3.org/2000/svg"><path d="M12.31 1.61a.989.989 0 0 1 .342.306l2.154 3.086c.131.188.2.417.194.651M12.31 1.61a.916.916 0 0 0-.433-.11H4.125a.915.915 0 0 0-.434.11m8.62 0-1.353 4.043M3.691 1.61a.989.989 0 0 0-.342.306L1.194 5.002c-.131.188-.2.417-.194.651M3.691 1.61l1.352 4.043M1 5.653c.006.234.085.46.225.64l6.032 7.835c.182.233.46.372.743.372M1 5.653h4.043M8 14.5c.283 0 .561-.14.743-.372l6.032-7.836c.14-.18.22-.405.225-.639M8 14.5 5.043 5.653M8 14.5l2.958-8.847m4.042 0h-4.042m-5.915 0h5.915" stroke="#000" stroke-width="1.5" stroke-linecap="round" stroke-linejoin="round"/></svg>
